time/mosquelogo.svg

<?xml version="1.0" standalone="no"?>
<!DOCTYPE svg PUBLIC "-//W3C//DTD SVG 20010904//EN"
 "http://www.w3.org/TR/2001/REC-SVG-20010904/DTD/svg10.dtd">
<svg version="1.0" xmlns="http://www.w3.org/2000/svg"
 width="108.000000pt" height="117.000000pt" viewBox="0 0 108.000000 117.000000"
 preserveAspectRatio="xMidYMid meet">

<g transform="translate(0.000000,117.000000) scale(0.100000,-0.100000)"
fill="#000000" stroke="none">
<path d="M487 1092 c-27 -29 -22 -87 9 -111 14 -11 30 -22 37 -24 19 -6 -27
-91 -65 -121 -18 -14 -53 -40 -78 -58 -52 -39 -77 -78 -88 -139 l-8 -44 249 0
249 0 -5 36 c-8 60 -38 110 -86 143 -95 65 -151 128 -151 169 0 8 11 19 24 25
14 6 30 21 36 32 l12 22 -29 -22 c-22 -15 -37 -19 -57 -14 -45 11 -62 70 -29
106 9 10 12 18 6 18 -5 0 -17 -8 -26 -18z"/>
<path d="M450 936 c-164 -35 -301 -170 -340 -334 -17 -72 -8 -193 19 -262 42
-110 141 -209 251 -252 84 -32 217 -36 298 -9 35 12 82 33 104 47 101 64 180
184 201 308 32 185 -74 386 -246 467 -59 27 -157 53 -167 43 -2 -3 3 -17 12
-32 17 -28 27 -35 117 -74 75 -32 145 -103 183 -185 28 -58 32 -78 32 -148 -1
-104 -28 -176 -95 -250 -165 -180 -447 -162 -582 37 -142 209 -39 498 202 569
30 9 49 22 62 43 20 33 24 47 12 45 -5 0 -33 -6 -63 -13z"/>
<path d="M305 572 c-30 -5 -41 -12 -43 -27 -3 -20 3 -20 283 -20 290 0 309 3
268 36 -12 11 -67 14 -242 16 -124 0 -244 -2 -266 -5z"/>
<path d="M351 509 c-63 -5 -120 -14 -128 -20 -21 -18 -16 -104 9 -152 l23 -42
3 31 c2 18 17 48 35 69 l32 36 35 -36 c34 -35 35 -39 39 -126 3 -85 4 -91 28
-100 13 -5 26 -9 29 -9 2 0 4 50 4 111 0 62 5 120 11 132 14 27 60 77 71 77 4
0 23 -17 43 -37 l34 -38 1 -122 c0 -70 4 -123 9 -123 5 0 21 4 35 10 25 9 26
12 26 95 0 84 1 86 35 123 l35 37 35 -37 c22 -24 35 -48 35 -65 1 -26 3 -25
25 17 24 46 32 113 16 139 -5 7 -31 17 -59 22 -85 13 -342 18 -461 8z"/>
</g>
</svg>

<?xml version="1.0" encoding="UTF-8" standalone="no"?>
<!DOCTYPE svg PUBLIC "-//W3C//DTD SVG 1.1//EN" "http://www.w3.org/Graphics/SVG/1.1/DTD/svg11.dtd">
<svg width="100%" height="100%" viewBox="0 0 99 117" version="1.1" xmlns="http://www.w3.org/2000/svg" xmlns:xlink="http://www.w3.org/1999/xlink" xml:space="preserve" xmlns:serif="http://www.serif.com/" style="fill-rule:evenodd;clip-rule:evenodd;stroke-linejoin:round;stroke-miterlimit:2;">
    <g transform="matrix(0.111546,0,0,-0.111546,-11.3064,123.816)">
        <path d="M487,1092C460,1063 465,1005 496,981C510,970 526,959 533,957C552,951 506,866 468,836C450,822 415,796 390,778C338,739 313,700 302,639L294,595L792,595L787,631C779,691 749,741 701,774C606,839 550,902 550,943C550,951 561,962 574,968C588,974 604,989 610,1000L622,1022L593,1000C571,985 556,981 536,986C491,997 474,1056 507,1092C516,1102 519,1110 513,1110C508,1110 496,1102 487,1092Z" style="fill-rule:nonzero;"/>
        <path d="M450,936C286,901 149,766 110,602C93,530 102,409 129,340C171,230 270,131 380,88C464,56 597,52 678,79C713,91 760,112 782,126C883,190 962,310 983,434C1015,619 909,820 737,901C678,928 580,954 570,944C568,941 573,927 582,912C599,884 609,877 699,838C774,806 844,735 882,653C910,595 914,575 914,505C913,401 886,329 819,255C654,75 372,93 237,292C95,501 198,790 439,861C469,870 488,883 501,904C521,937 525,951 513,949C508,949 480,943 450,936Z" style="fill-rule:nonzero;"/>
        <path d="M305,572C275,567 264,560 262,545C259,525 265,525 545,525C835,525 854,528 813,561C801,572 746,575 571,577C447,577 327,575 305,572Z" style="fill-rule:nonzero;"/>
        <path d="M351,509C288,504 231,495 223,489C202,471 207,385 232,337L255,295L258,326C260,344 275,374 293,395L325,431L360,395C394,360 395,356 399,269C402,184 403,178 427,169C440,164 453,160 456,160C458,160 460,210 460,271C460,333 465,391 471,403C485,430 531,480 542,480C546,480 565,463 585,443L619,405L620,283C620,213 624,160 629,160C634,160 650,164 664,170C689,179 690,182 690,265C690,349 691,351 725,388L760,425L795,388C817,364 830,340 830,323C831,297 833,298 855,340C879,386 887,453 871,479C866,486 840,496 812,501C727,514 470,519 351,509Z" style="fill-rule:nonzero;"/>
    </g>
</svg>
